; generated by SuperSlicer 2.3.56 on 2021-06-14 at 11:50:57 UTC


;
;

;
;
; TODO: check the size of the extruder and the y-bar clearance. Optimize & test supports.

; external perimeters extrusion width = 0.63mm
; perimeters extrusion width = 0.66mm
; infill extrusion width = 0.66mm
; solid infill extrusion width = 0.66mm
; top infill extrusion width = 0.66mm
; first layer extrusion width = 0.84mm

; object:{"name":"test_sample v1","id":"test_sample v1.stl id:0 copy 0","object_center":[25.834756,307.837602,0.000000],"boundingbox_center":[25.834756,307.837602,2.000000],"boundingbox_size":[20.000000,34.000000,4.000000]}
; object:{"name":"test_sample v1","id":"test_sample v1.stl id:1 copy 0","object_center":[95.216805,308.556336,0.000000],"boundingbox_center":[95.216805,308.556336,2.000000],"boundingbox_size":[20.000000,34.000000,4.000000]}
; object:{"name":"test_sample v1","id":"test_sample v1.stl id:2 copy 0","object_center":[168.528450,310.879580,0.000000],"boundingbox_center":[168.528450,310.879580,2.000000],"boundingbox_size":[20.000000,34.000000,4.000000]}
; object:{"name":"test_sample v1","id":"test_sample v1.stl id:3 copy 0","object_center":[243.192729,310.209535,0.000000],"boundingbox_center":[243.192729,310.209535,2.000000],"boundingbox_size":[20.000000,34.000000,4.000000]}
; object:{"name":"test_sample v1","id":"test_sample v1.stl id:4 copy 0","object_center":[315.588199,310.313948,0.000000],"boundingbox_center":[315.588199,310.313948,2.000000],"boundingbox_size":[20.000000,34.000000,4.000000]}
; object:{"name":"test_sample v1","id":"test_sample v1.stl id:5 copy 0","object_center":[28.357892,236.335197,0.000000],"boundingbox_center":[28.357892,236.335197,2.000000],"boundingbox_size":[20.000000,34.000000,4.000000]}
; object:{"name":"test_sample v1","id":"test_sample v1.stl id:6 copy 0","object_center":[97.739940,237.053930,0.000000],"boundingbox_center":[97.739940,237.053930,2.000000],"boundingbox_size":[20.000000,34.000000,4.000000]}
; object:{"name":"test_sample v1","id":"test_sample v1.stl id:7 copy 0","object_center":[171.051586,239.377174,0.000000],"boundingbox_center":[171.051586,239.377174,2.000000],"boundingbox_size":[20.000000,34.000000,4.000000]}
; object:{"name":"test_sample v1","id":"test_sample v1.stl id:8 copy 0","object_center":[245.715865,238.707130,0.000000],"boundingbox_center":[245.715865,238.707130,2.000000],"boundingbox_size":[20.000000,34.000000,4.000000]}
; object:{"name":"test_sample v1","id":"test_sample v1.stl id:9 copy 0","object_center":[318.111335,238.811542,0.000000],"boundingbox_center":[318.111335,238.811542,2.000000],"boundingbox_size":[20.000000,34.000000,4.000000]}
; object:{"name":"test_sample v1","id":"test_sample v1.stl id:10 copy 0","object_center":[26.565224,173.837416,0.000000],"boundingbox_center":[26.565224,173.837416,2.000000],"boundingbox_size":[20.000000,34.000000,4.000000]}
; object:{"name":"test_sample v1","id":"test_sample v1.stl id:11 copy 0","object_center":[95.947273,174.556149,0.000000],"boundingbox_center":[95.947273,174.556149,2.000000],"boundingbox_size":[20.000000,34.000000,4.000000]}
; object:{"name":"test_sample v1","id":"test_sample v1.stl id:12 copy 0","object_center":[169.258918,176.879393,0.000000],"boundingbox_center":[169.258918,176.879393,2.000000],"boundingbox_size":[20.000000,34.000000,4.000000]}
; object:{"name":"test_sample v1","id":"test_sample v1.stl id:13 copy 0","object_center":[243.923198,176.209349,0.000000],"boundingbox_center":[243.923198,176.209349,2.000000],"boundingbox_size":[20.000000,34.000000,4.000000]}
; object:{"name":"test_sample v1","id":"test_sample v1.stl id:14 copy 0","object_center":[316.318667,176.313761,0.000000],"boundingbox_center":[316.318667,176.313761,2.000000],"boundingbox_size":[20.000000,34.000000,4.000000]}
; object:{"name":"test_sample v1","id":"test_sample v1.stl id:15 copy 0","object_center":[27.949191,103.713824,0.000000],"boundingbox_center":[27.949191,103.713824,2.000000],"boundingbox_size":[20.000000,34.000000,4.000000]}
; object:{"name":"test_sample v1","id":"test_sample v1.stl id:16 copy 0","object_center":[97.331239,104.432557,0.000000],"boundingbox_center":[97.331239,104.432557,2.000000],"boundingbox_size":[20.000000,34.000000,4.000000]}
; object:{"name":"test_sample v1","id":"test_sample v1.stl id:17 copy 0","object_center":[170.642885,106.755801,0.000000],"boundingbox_center":[170.642885,106.755801,2.000000],"boundingbox_size":[20.000000,34.000000,4.000000]}
; object:{"name":"test_sample v1","id":"test_sample v1.stl id:18 copy 0","object_center":[245.307164,106.085757,0.000000],"boundingbox_center":[245.307164,106.085757,2.000000],"boundingbox_size":[20.000000,34.000000,4.000000]}
; object:{"name":"test_sample v1","id":"test_sample v1.stl id:19 copy 0","object_center":[317.702634,106.190169,0.000000],"boundingbox_center":[317.702634,106.190169,2.000000],"boundingbox_size":[20.000000,34.000000,4.000000]}
; object:{"name":"test_sample v1","id":"test_sample v1.stl id:20 copy 0","object_center":[28.547475,32.362181,0.000000],"boundingbox_center":[28.547475,32.362181,2.000000],"boundingbox_size":[20.000000,34.000000,4.000000]}
; object:{"name":"test_sample v1","id":"test_sample v1.stl id:21 copy 0","object_center":[97.929524,33.080914,0.000000],"boundingbox_center":[97.929524,33.080914,2.000000],"boundingbox_size":[20.000000,34.000000,4.000000]}
; object:{"name":"test_sample v1","id":"test_sample v1.stl id:22 copy 0","object_center":[171.241169,35.404158,0.000000],"boundingbox_center":[171.241169,35.404158,2.000000],"boundingbox_size":[20.000000,34.000000,4.000000]}
; object:{"name":"test_sample v1","id":"test_sample v1.stl id:23 copy 0","object_center":[245.905448,34.734114,0.000000],"boundingbox_center":[245.905448,34.734114,2.000000],"boundingbox_size":[20.000000,34.000000,4.000000]}
; object:{"name":"test_sample v1","id":"test_sample v1.stl id:24 copy 0","object_center":[318.300918,34.838526,0.000000],"boundingbox_center":[318.300918,34.838526,2.000000],"boundingbox_size":[20.000000,34.000000,4.000000]}
; plater:{"center":[172.067837,171.620880,0.000000],"boundingbox_center":[172.067837,171.620880,2.000000],"boundingbox_size":[312.466162,312.517399,4.000000]}

;TYPE:Custom
SET_FRAME_COMP ENABLE=1

G28
PARKCENTER
M117 Heating
M106 S255
M140 S105
M104 S100
M190 S105
M107         

G4 P900000 ; wait 15 minutes

print_start EXTRUDER_TEMP=240 BED_TEMP=105 ; CHAMBER_TEMP=50
M107
G21 ; set units to millimeters
G90 ; use absolute coordinates
M83 ; use relative distances for extrusion
;LAYER_CHANGE
;Z:0.3
;HEIGHT:0.3
;BEFORE_LAYER_CHANGE
;0.3


G1 Z0.300000 F18000.000
;AFTER_LAYER_CHANGE
;0.3
; INIT printing object test_sample v1.stl id:0 copy 0
M104 S240 ; set temperature
G1 E-0.70000 F3000.000
G1 Z1.300000 F18000.000
; printing object test_sample v1.stl id:0 copy 0
G1 X16.355 Y295.208
G1 Z0.300000
G1 E0.70000 F1800.000
;TYPE:External perimeter
;WIDTH:0.84
M204 S1000
G1 X35.315 Y295.208 E1.74247
G1 X35.315 Y324.318 E2.67528
G1 X16.355 Y324.318 E1.74247
G1 X16.355 Y295.298 E2.66701
M204 S1500
G1 X16.874 Y295.508 F18000.000
G1 E-0.70000 F3000.000
G1 Z0.700000 F18000.000
G1 X33.475 Y295.479
G1 Z0.300000
G1 E0.70000 F1800.000
;TYPE:Solid infill
;WIDTH:0.834744
M204 S1000
G1 X34.694 Y296.698 E0.15742
G1 X34.694 Y297.795 E0.10018
G1 X32.728 Y295.828 E0.25401
G1 X31.631 Y295.828 E0.10018
G1 X34.694 Y298.892 E0.39568
G1 X34.694 Y299.989 E0.10018
G1 X30.534 Y295.828 E0.53735
G1 X29.437 Y295.828 E0.10018
G1 X34.694 Y301.085 E0.67902
G1 X34.694 Y302.182 E0.10018
G1 X28.340 Y295.828 E0.82069
G1 X27.243 Y295.828 E0.10018
G1 X34.694 Y303.279 E0.96236
G1 X34.694 Y304.376 E0.10018
G1 X26.146 Y295.828 E1.10403
G1 X25.049 Y295.828 E0.10018
G1 X34.694 Y305.473 E1.24570
G1 X34.694 Y306.570 E0.10018
G1 X23.952 Y295.828 E1.38737
G1 X22.856 Y295.828 E0.10018
G1 X34.694 Y307.667 E1.52905
G1 X34.694 Y308.764 E0.10018
G1 X21.759 Y295.828 E1.67072
G1 X20.662 Y295.828 E0.10018
G1 X34.694 Y309.861 E1.81239
G1 X34.694 Y310.957 E0.10018
G1 X19.565 Y295.828 E1.95406
G1 X18.468 Y295.828 E0.10018
G1 X34.694 Y312.054 E2.09573
G1 X34.694 Y313.151 E0.10018
G1 X17.371 Y295.828 E2.23740
G1 X16.975 Y295.828 E0.03615
G1 X16.975 Y296.529 E0.06402
G1 X34.694 Y314.248 E2.28853
G1 X34.694 Y315.345 E0.10018
G1 X16.975 Y297.626 E2.28853
G1 X16.975 Y298.723 E0.10018
G1 X34.694 Y316.442 E2.28853
G1 X34.694 Y317.539 E0.10018
G1 X16.975 Y299.820 E2.28853
G1 X16.975 Y300.917 E0.10018
G1 X34.694 Y318.636 E2.28853
G1 X34.694 Y319.733 E0.10018
G1 X16.975 Y302.014 E2.28853
G1 X16.975 Y303.110 E0.10018
G1 X34.694 Y320.829 E2.28853
G1 X34.694 Y321.926 E0.10018
G1 X16.975 Y304.207 E2.28853
G1 X16.975 Y305.304 E0.10018
G1 X34.694 Y323.023 E2.28853
G1 X34.694 Y323.697 E0.06154
G1 X34.271 Y323.697 E0.03863
G1 X16.975 Y306.401 E2.23389
G1 X16.975 Y307.498 E0.10018
G1 X33.174 Y323.697 E2.09222
G1 X32.077 Y323.697 E0.10018
G1 X16.975 Y308.595 E1.95055
G1 X16.975 Y309.692 E0.10018
G1 X30.981 Y323.697 E1.80888
G1 X29.884 Y323.697 E0.10018
G1 X16.975 Y310.789 E1.66721
G1 X16.975 Y311.886 E0.10018
G1 X28.787 Y323.697 E1.52554
G1 X27.690 Y323.697 E0.10018
G1 X16.975 Y312.982 E1.38387
G1 X16.975 Y314.079 E0.10018
G1 X26.593 Y323.697 E1.24220
G1 X25.496 Y323.697 E0.10018
G1 X16.975 Y315.176 E1.10053
G1 X16.975 Y316.273 E0.10018
G1 X24.399 Y323.697 E0.95886
G1 X23.302 Y323.697 E0.10018
G1 X16.975 Y317.370 E0.81718
G1 X16.975 Y318.467 E0.10018
G1 X22.205 Y323.697 E0.67551
G1 X21.109 Y323.697 E0.10018
G1 X16.975 Y319.564 E0.53384
G1 X16.975 Y320.661 E0.10018
G1 X20.012 Y323.697 E0.39217
G1 X18.915 Y323.697 E0.10018
G1 X16.975 Y321.758 E0.25050
G1 X16.975 Y322.854 E0.10018
G1 X18.167 Y324.046 E0.15391
; INIT stop printing object test_sample v1.stl id:0 copy 0
;LAYER_CHANGE
;Z:0.5
;HEIGHT:0.2
;BEFORE_LAYER_CHANGE
;0.5


; stop printing object test_sample v1.stl id:0 copy 0
M204 S1500
G1 Z0.500000 F18000.000
;AFTER_LAYER_CHANGE
;0.5
M104 S235 ; set temperature
; INIT printing object test_sample v1.stl id:0 copy 0
; printing object test_sample v1.stl id:0 copy 0
G1 X17.520 Y323.153
;TYPE:External perimeter
;WIDTH:0.63
G1 F2400.000
G1 X34.150 Y323.153 E0.77122
G1 X34.150 Y296.523 E1.23497
G1 X17.520 Y296.523 E0.77122
G1 X17.520 Y323.063 E1.23079
G1 X17.520 Y323.753 F18000.000
G1 X16.767 Y323.906
;TYPE:Perimeter
;WIDTH:0.66
G1 F5347.770
G1 X16.767 Y295.370 E1.39098
G1 X34.903 Y295.370 E0.88403
G1 X34.903 Y323.906 E1.39098
G1 X16.857 Y323.906 E0.87964
G1 X16.150 Y324.523 F18000.000
;TYPE:External perimeter
;WIDTH:0.63
G1 F2400.000
G1 X16.150 Y294.803 E1.37827
;TYPE:Overhang perimeter
G1 F3600.000
G1 X16.150 Y294.753 E0.00232
G1 X35.520 Y294.753 E0.89829
G1 X35.520 Y294.803 E0.00232
;TYPE:External perimeter
G1 F2400.000
G1 X35.520 Y324.523 E1.37827
G1 X16.240 Y324.523 E0.89411
G1 X16.450 Y324.003 F18000.000
G1 X17.159 Y323.513
;TYPE:Gap fill
;WIDTH:0.257744
G1 F2400.000
G1 X17.151 Y323.475 E0.00066
;WIDTH:0.226284
G1 X17.143 Y323.437 E0.00056
G1 X17.143 Y296.238 E0.39397
G1 X17.162 Y296.201 E0.00059
;WIDTH:0.272125
G1 X17.180 Y296.164 E0.00074
;WIDTH:0.317966
G1 X17.198 Y296.128 E0.00089
;WIDTH:0.363807
G1 X17.217 Y296.091 E0.00104
;WIDTH:0.409648
G1 X17.235 Y296.054 E0.00119
G1 X17.253 Y296.036 E0.00074
;WIDTH:0.496303
G1 X17.289 Y296.000 E0.00174
;WIDTH:0.582957
G1 X17.325 Y295.964 E0.00209
;WIDTH:0.626284
G1 X17.343 Y295.946 E0.00118
G1 X34.326 Y295.946 E0.78260
G1 X34.344 Y295.964 E0.00118
;WIDTH:0.53963
G1 X34.380 Y296.000 E0.00209
;WIDTH:0.452976
G1 X34.416 Y296.036 E0.00174
;WIDTH:0.409648
G1 X34.435 Y296.054 E0.00074
G1 X34.453 Y296.091 E0.00119
;WIDTH:0.363807
G1 X34.471 Y296.128 E0.00104
;WIDTH:0.317966
G1 X34.490 Y296.164 E0.00089
;WIDTH:0.272125
G1 X34.508 Y296.201 E0.00074
;WIDTH:0.226284
G1 X34.526 Y296.238 E0.00059
G1 X34.526 Y323.437 E0.39397
G1 X34.518 Y323.475 E0.00056
;WIDTH:0.257744
G1 X34.510 Y323.513 E0.00066
G1 X34.473 Y323.521 E0.00066
;WIDTH:0.226284
G1 X34.435 Y323.529 E0.00056
G1 X17.247 Y323.529 E0.24895
; INIT stop printing object test_sample v1.stl id:0 copy 0
;LAYER_CHANGE
;Z:0.7
;HEIGHT:0.2
;BEFORE_LAYER_CHANGE
;0.7


; stop printing object test_sample v1.stl id:0 copy 0
G1 Z0.700000 F18000.000
;AFTER_LAYER_CHANGE
;0.7
; INIT printing object test_sample v1.stl id:0 copy 0
; printing object test_sample v1.stl id:0 copy 0
G1 X16.752 Y295.921
;TYPE:Perimeter
;WIDTH:0.66
G1 F1296
G1 X16.752 Y295.155 E0.03733
G1 X34.918 Y295.155 E0.88549
G1 X34.918 Y295.921 E0.03733
G1 X16.842 Y295.921 E0.88110
G1 X17.520 Y296.523 F18000.000
;TYPE:External perimeter
;WIDTH:0.63
G1 F1296
G1 X17.520 Y323.153 E1.23497
G1 X34.150 Y323.153 E0.77122
G1 X34.150 Y296.523 E1.23497
G1 X17.610 Y296.523 E0.76704
G1 X16.920 Y296.523 F18000.000
G1 E-0.70000 F3000.000
G1 Z1.100000 F18000.000
G1 X35.520 Y324.523
G1 Z0.700000
G1 E0.70000 F1800.000
G1 F1296
G1 X16.150 Y324.523 E0.89829
G1 X16.150 Y294.553 E1.38986
G1 X35.520 Y294.553 E0.89829
G1 X35.520 Y324.433 E1.38569
G1 X35.000 Y324.223 F18000.000
G1 X34.783 Y323.686
;TYPE:Gap fill
;WIDTH:0.980698
G1 F1296
G1 X34.766 Y323.769 E0.00627
G1 X34.683 Y323.786 E0.00627
;WIDTH:0.93492

G1 X34.600 Y323.803 E0.00596
;WIDTH:0.889141

G1 X34.517 Y323.820 E0.00566
;WIDTH:0.843362

G1 X34.435 Y323.838 E0.00535
G1 X17.235 Y323.838 E1.08751
G1 X17.152 Y323.820 E0.00535
;WIDTH:0.889141

G1 X17.069 Y323.803 E0.00566
;WIDTH:0.93492

G1 X16.986 Y323.786 E0.00596
;WIDTH:0.980698

G1 X16.903 Y323.769 E0.00627
G1 X16.886 Y323.686 E0.00627
;WIDTH:0.93492

G1 X16.869 Y323.603 E0.00596
;WIDTH:0.889142

G1 X16.852 Y323.520 E0.00566
;WIDTH:0.843364

G1 X16.835 Y323.437 E0.00535
G1 X16.835 Y296.598 E1.69703
G1 X16.835 Y296.198 E0.02531
G1 X17.037 Y295.538 F18000.000
;WIDTH:0.239208
G1 F1296
G1 X17.135 Y295.538 E0.00152
G1 X25.835 Y295.538 E0.13490
G1 X34.535 Y295.538 E0.13490
G1 X34.633 Y295.538 E0.00152
G1 X34.835 Y296.198 F18000.000
;WIDTH:0.843364
G1 F1296
G1 X34.835 Y296.398 E0.01265
G1 X34.835 Y323.437 E1.70969
G1 X34.818 Y323.520 E0.00535
;WIDTH:0.889142

G1 X34.800 Y323.603 E0.00566
;WIDTH:0.93492

G1 X34.783 Y323.686 E0.00596
; INIT stop printing object test_sample v1.stl id:0 copy 0
;LAYER_CHANGE
;Z:0.9
;HEIGHT:0.2
;BEFORE_LAYER_CHANGE
;0.9


; stop printing object test_sample v1.stl id:0 copy 0
G1 Z0.900000 F18000.000
;AFTER_LAYER_CHANGE
;0.9
; INIT printing object test_sample v1.stl id:0 copy 0
; printing object test_sample v1.stl id:0 copy 0
G1 X34.918 Y295.921
;TYPE:Perimeter
;WIDTH:0.66
G1 F1286
G1 X16.752 Y295.921 E0.88549
G1 X16.752 Y294.955 E0.04708
G1 X34.918 Y294.955 E0.88549
G1 X34.918 Y295.831 E0.04269
G1 X34.150 Y296.523 F18000.000
;TYPE:External perimeter
;WIDTH:0.63
G1 F1286
G1 X17.520 Y296.523 E0.77122
G1 X17.520 Y323.153 E1.23497
G1 X34.150 Y323.153 E0.77122
G1 X34.150 Y296.613 E1.23079
G1 X34.150 Y295.923 F18000.000
G1 X35.520 Y324.523
G1 F1286
G1 X16.150 Y324.523 E0.89829
G1 X16.150 Y294.353 E1.39914
G1 X35.520 Y294.353 E0.89829
G1 X35.520 Y324.433 E1.39496
G1 X35.000 Y324.223 F18000.000
G1 X34.783 Y323.686
;TYPE:Gap fill
;WIDTH:0.980698
G1 F1286
G1 X34.766 Y323.769 E0.00627
G1 X34.683 Y323.786 E0.00627
;WIDTH:0.93492

G1 X34.600 Y323.803 E0.00596
;WIDTH:0.889141

G1 X34.517 Y323.820 E0.00566
;WIDTH:0.843362

G1 X34.435 Y323.838 E0.00535
G1 X17.235 Y323.838 E1.08751
G1 X17.152 Y323.820 E0.00535
;WIDTH:0.889141

G1 X17.069 Y323.803 E0.00566
;WIDTH:0.93492

G1 X16.986 Y323.786 E0.00596
;WIDTH:0.980698

G1 X16.903 Y323.769 E0.00627
G1 X16.886 Y323.686 E0.00627
;WIDTH:0.93492

G1 X16.869 Y323.603 E0.00596
;WIDTH:0.889142

G1 X16.852 Y323.520 E0.00566
;WIDTH:0.843364

G1 X16.835 Y323.437 E0.00535
G1 X16.835 Y296.598 E1.69703
G1 X16.835 Y296.198 E0.02531
G1 X17.037 Y295.438 F18000.000
;WIDTH:0.439206
G1 F1286
G1 X17.136 Y295.438 E0.00310
G1 X17.235 Y295.438 E0.00310
G1 X34.435 Y295.438 E0.53842
G1 X34.633 Y295.438 E0.00620
G1 X34.835 Y296.198 F18000.000
;WIDTH:0.843364
G1 F1286
G1 X34.835 Y296.398 E0.01265
G1 X34.835 Y323.437 E1.70969
G1 X34.818 Y323.520 E0.00535
;WIDTH:0.889142

G1 X34.800 Y323.603 E0.00566
;WIDTH:0.93492

G1 X34.783 Y323.686 E0.00596
; INIT stop printing object test_sample v1.stl id:0 copy 0
